X:1
T:Mount and Go
M:4/4
L:1/4
K:C
 A/2| A A A3/2 G/2| G A c3/2 z/2| E/2E/2 E E3/2 D/2| C E G3/2 G/2|\
 c c d3/2 c/2|c/2-B/2A/2-G/2 c C/2C/2| E3/2 E/2 E D/2D/2| E A A||
